X: 020176
T: Bob's Garden of Earthly Delights
C: J.Whelan
Z: B.Black
R: reel
M: 4/4
L: 1/8
K: Ador
AB | cA A2 cAed | (3cBA BG DGBG | cA A2 EAcd |\
edef gedB |
cA A2 gedB | GB B2 dBGB | cABG AG=FD | EAAG A2 :|
AB | ea a2 gaba | ge e2 dBGB | cA A2 cAef |\
gfgb agba |
ge e2 bage | dg g2 edcB | cABG AG=FD | EAAG A2 :|
